eloquery/logo.svg

<?xml version="1.0" encoding="UTF-8"?>
<svg width="444px" height="50px" viewBox="0 0 444 50" version="1.1" xmlns="http://www.w3.org/2000/svg" xmlns:xlink="http://www.w3.org/1999/xlink">
    <title>ELOQUERY</title>
    <defs>
        <linearGradient x1="50%" y1="16.1085009%" x2="50%" y2="82.7546233%" id="linearGradient-1">
            <stop stop-color="#F38EFF" offset="0%"></stop>
            <stop stop-color="#4CD3F5" offset="50.5187561%"></stop>
            <stop stop-color="#00FFAF" offset="100%"></stop>
        </linearGradient>
        <path d="M95.4238281,245.363281 L99.7480469,233.339844 L49.5449219,233.339844 L46.2753906,242.410156 L83.0839844,242.410156 L82.0292969,245.363281 L95.4238281,245.363281 Z M84.6660156,275 L89.5175781,261.5 L89.5175781,261.394531 L76.1230469,261.394531 L74.5410156,265.929688 L61.0410156,265.929688 C62.4280895,262.156516 63.3265351,259.663086 63.7363523,258.449396 L63.8095703,258.230469 C63.9326172,257.858398 63.9941406,257.647461 63.9941406,257.597656 L63.9941406,257.597656 L79.9199219,257.597656 L82.8730469,249.265625 L67.1582031,249.265625 C67.3691406,248.492188 67.8261719,247.15625 68.5292969,245.257812 L68.5292969,245.257812 L49.3339844,245.257812 L38.5761719,275 L84.6660156,275 Z M110.400391,275 C113.564453,266.46875 118.626953,252.582031 125.587891,233.339844 L125.587891,233.339844 L102.279297,233.339844 L99.0097656,242.410156 L103.123047,242.410156 L91.3105469,275 L110.400391,275 Z M137.400391,275 L142.251953,261.5 L142.251953,261.394531 L128.857422,261.394531 L127.275391,265.929688 L116.728516,265.929688 L113.458984,275 L137.400391,275 Z M185.810547,275 C187.310547,275 188.646484,274.824219 189.818359,274.472656 C191.435547,273.957031 192.560547,273.113281 193.193359,271.941406 C194.107422,269.550781 197.130859,261.21875 202.263672,246.945312 C203.669922,243.652344 204.373047,241.15625 204.373047,239.457031 L204.373047,239.457031 L204.373047,238.824219 C204.373047,238.226562 204.302734,237.769531 204.162109,237.453125 C203.505859,234.710938 200.939453,233.339844 196.462891,233.339844 L196.462891,233.339844 L163.345703,233.339844 C160.931641,233.339844 158.962891,233.796875 157.439453,234.710938 C156.478516,235.179688 155.248047,237.746094 153.748047,242.410156 L153.748047,242.410156 L182.224609,242.410156 C183.126953,242.410156 183.689453,242.972656 183.912109,244.097656 L183.912109,244.097656 L183.912109,244.203125 C183.912109,244.835938 182.013672,250.179688 178.216797,260.234375 C177.302734,264.03125 175.615234,265.929688 173.154297,265.929688 L173.154297,265.929688 L166.931641,265.929688 C165.958984,265.929688 165.396484,265.296875 165.244141,264.03125 L165.244141,264.03125 L165.244141,263.925781 C165.419922,263.128906 167.634766,256.90625 171.888672,245.257812 L171.888672,245.257812 L152.693359,245.257812 L147.841797,258.652344 C145.310547,265.449219 144.044922,269.175781 144.044922,269.832031 L144.044922,269.832031 L144.044922,270.359375 C144.044922,270.96875 144.185547,271.566406 144.466797,272.152344 C145.404297,274.050781 146.529297,275 147.841797,275 L147.841797,275 L185.810547,275 Z M240.865234,275 C242.365234,275 243.701172,274.824219 244.873047,274.472656 C246.490234,273.957031 247.615234,273.113281 248.248047,271.941406 C249.162109,269.550781 252.185547,261.21875 257.318359,246.945312 C258.724609,243.652344 259.427734,241.15625 259.427734,239.457031 L259.427734,239.457031 L259.427734,238.824219 C259.427734,238.226562 259.357422,237.769531 259.216797,237.453125 C258.560547,234.710938 255.994141,233.339844 251.517578,233.339844 L251.517578,233.339844 L218.400391,233.339844 C215.986328,233.339844 214.017578,233.796875 212.494141,234.710938 C211.533203,235.179688 210.302734,237.746094 208.802734,242.410156 L208.802734,242.410156 L237.279297,242.410156 C238.181641,242.410156 238.744141,242.972656 238.966797,244.097656 L238.966797,244.097656 L238.966797,244.308594 C238.779297,245.222656 237.126953,249.933594 234.009766,258.441406 C234.009766,258.59375 235.978516,264.113281 239.916016,275 L239.916016,275 L240.865234,275 Z M240.021484,282.804688 L229.263672,253.0625 L227.154297,253.0625 L222.513672,265.929688 L221.986328,265.929688 C221.013672,265.929688 220.451172,265.296875 220.298828,264.03125 L220.298828,264.03125 L220.298828,263.925781 C220.498047,263.09375 222.712891,256.871094 226.943359,245.257812 L226.943359,245.257812 L207.748047,245.257812 L202.896484,258.652344 C200.365234,265.449219 199.099609,269.175781 199.099609,269.832031 L199.099609,269.832031 L199.099609,270.359375 C199.099609,270.96875 199.240234,271.566406 199.521484,272.152344 C200.458984,274.050781 201.583984,275 202.896484,275 L202.896484,275 L223.884766,275 C223.884766,275.140625 224.798828,277.742188 226.626953,282.804688 L226.626953,282.804688 L240.021484,282.804688 Z M295.919922,275 C299.822266,275 302.318359,273.910156 303.408203,271.730469 L303.408203,271.730469 L317.330078,233.339844 L298.134766,233.339844 C291.736328,251.058594 288.501953,259.953125 288.431641,260.023438 C287.458984,263.960938 285.736328,265.929688 283.263672,265.929688 L283.263672,265.929688 L277.041016,265.929688 C276.068359,265.929688 275.505859,265.296875 275.353516,264.03125 L275.353516,264.03125 L275.353516,263.714844 L286.322266,233.339844 L267.126953,233.339844 L258.900391,256.121094 C255.736328,264.464844 254.154297,269.035156 254.154297,269.832031 L254.154297,269.832031 L254.154297,270.359375 C254.154297,270.96875 254.294922,271.566406 254.576172,272.152344 C255.513672,274.050781 256.638672,275 257.951172,275 L257.951172,275 L295.919922,275 Z M365.740234,245.363281 L370.064453,233.339844 L319.861328,233.339844 L316.591797,242.410156 L353.400391,242.410156 L352.345703,245.363281 L365.740234,245.363281 Z M354.982422,275 L359.833984,261.5 L359.833984,261.394531 L346.439453,261.394531 L344.857422,265.929688 L331.357422,265.929688 C332.744496,262.156516 333.642941,259.663086 334.052759,258.449396 L334.125977,258.230469 C334.249023,257.858398 334.310547,257.647461 334.310547,257.597656 L334.310547,257.597656 L350.236328,257.597656 L353.189453,249.265625 L337.474609,249.265625 C337.685547,248.492188 338.142578,247.15625 338.845703,245.257812 L338.845703,245.257812 L319.650391,245.257812 L308.892578,275 L354.982422,275 Z M414.150391,275 L417.314453,266.140625 L416.787109,266.140625 C416.107422,266.140625 415.650391,265.859375 415.416016,265.296875 L415.416016,265.296875 L415.416016,265.085938 C416.330078,262.683594 416.787109,261.207031 416.787109,260.65625 L416.787109,260.65625 L416.787109,259.917969 C416.787109,258.746094 415.908203,257.796875 414.150391,257.070312 L414.150391,257.070312 L414.150391,256.964844 C414.712891,256.882812 416.013672,256.003906 418.052734,254.328125 C419.763672,252.59375 420.958984,250.308594 421.638672,247.472656 C423.185547,243.886719 423.958984,241.214844 423.958984,239.457031 L423.958984,239.457031 L423.958984,238.824219 C423.958984,238.226562 423.888672,237.769531 423.748047,237.453125 C423.091797,234.710938 420.525391,233.339844 416.048828,233.339844 L416.048828,233.339844 L372.595703,233.339844 L369.326172,242.410156 L401.916016,242.410156 C402.818359,242.410156 403.380859,242.972656 403.603516,244.097656 C403.603516,244.742188 402.970703,246.675781 401.705078,249.898438 C400.744141,252.007812 399.337891,253.0625 397.486328,253.0625 L397.486328,253.0625 L391.791016,253.0625 L388.837891,261.394531 L395.166016,261.394531 C396.291016,261.535156 396.853516,261.992188 396.853516,262.765625 L396.853516,262.765625 L396.853516,263.082031 C395.447266,267.089844 394.744141,269.339844 394.744141,269.832031 L394.744141,269.832031 L394.744141,270.359375 C394.744141,270.96875 394.884766,271.566406 395.166016,272.152344 C396.103516,274.050781 397.228516,275 398.541016,275 L398.541016,275 L414.150391,275 Z M380.822266,275 L391.580078,245.257812 L372.384766,245.257812 L361.626953,275 L380.822266,275 Z M450.853516,257.597656 L453.806641,249.265625 L447.583984,249.265625 C446.611328,249.265625 446.048828,248.632812 445.896484,247.367188 L445.896484,247.367188 L445.896484,247.050781 L450.853516,233.339844 L431.658203,233.339844 L430.181641,237.453125 C426.736328,246.710938 425.013672,251.703125 425.013672,252.429688 L425.013672,252.429688 L425.013672,252.957031 C425.013672,253.566406 425.154297,254.164062 425.435547,254.75 C426.373047,256.648438 427.498047,257.597656 428.810547,257.597656 L428.810547,257.597656 L450.853516,257.597656 Z M460.451172,275 C464.353516,275 466.849609,273.910156 467.939453,271.730469 L467.939453,271.730469 L481.861328,233.339844 L462.666016,233.339844 C456.267578,251.058594 453.033203,259.953125 452.962891,260.023438 C451.990234,263.960938 450.267578,265.929688 447.794922,265.929688 L447.794922,265.929688 L441.572266,265.929688 C440.599609,265.929688 440.037109,265.296875 439.884766,264.03125 L439.884766,264.03125 L439.884766,263.820312 C439.884766,263.621094 440.130859,262.847656 440.623047,261.5 L440.623047,261.5 L440.623047,261.394531 L421.427734,261.394531 C419.599609,266.410156 418.685547,269.222656 418.685547,269.832031 L418.685547,269.832031 L418.685547,270.359375 C418.685547,270.96875 418.826172,271.566406 419.107422,272.152344 C420.044922,274.050781 421.169922,275 422.482422,275 L422.482422,275 L460.451172,275 Z" id="path-2"></path>
    </defs>
    <g id="Page-1" stroke="none" stroke-width="1" fill="none" fill-rule="evenodd">
        <g id="Eloquery" transform="translate(-38.000000, -233.000000)" fill-rule="nonzero">
            <g id="ELOQUERY">
                <use fill="#000000" xlink:href="#path-2"></use>
                <use fill="url(#linearGradient-1)" xlink:href="#path-2"></use>
            </g>
        </g>
    </g>
</svg>

<svg xmlns="http://www.w3.org/2000/svg" viewBox="0 0 444 50"><defs><linearGradient id="a" x1="50%" x2="50%" y1="16.1085%" y2="82.7546%"><stop offset="0%" stop-color="#F38EFF"/><stop offset="50.5188%" stop-color="#4CD3F5"/><stop offset="100%" stop-color="#00FFAF"/></linearGradient></defs><path fill="url(#a)" fill-rule="nonzero" d="M95.4238 245.3633l4.3242-12.0235H49.545l-3.2696 9.0704H83.084l-1.0547 2.953h13.3945zM84.666 275l4.8516-13.5v-.1055H76.123l-1.582 4.5352h-13.5c1.387-3.7732 2.2855-6.2666 2.6954-7.4803l.0732-.219c.123-.372.1845-.583.1845-.6327H79.92l2.9531-8.332H67.1582c.211-.7735.668-2.1095 1.3711-4.0079H49.334L38.5762 275H84.666zm25.7344 0c3.164-8.5313 8.2266-22.418 15.1875-41.6602h-23.3086l-3.2695 9.0704h4.1132L91.3105 275h19.0899zm27 0l4.8516-13.5v-.1055h-13.3946l-1.582 4.5352h-10.5469L113.459 275h23.9414zm48.4101 0c1.5 0 2.836-.1758 4.0079-.5273 1.6171-.5157 2.7421-1.3594 3.375-2.5313.914-2.3906 3.9375-10.7226 9.0703-24.996 1.4062-3.293 2.1093-5.7892 2.1093-7.4884v-.6328c0-.5976-.0703-1.0547-.2109-1.371-.6562-2.7423-3.2226-4.1134-7.6992-4.1134h-33.1172c-2.414 0-4.3828.457-5.9062 1.3711-.961.4688-2.1915 3.0352-3.6915 7.6993h28.4766c.9024 0 1.4649.5625 1.6875 1.6875v.1054c0 .6328-1.8984 5.9766-5.6953 16.0313-.914 3.7969-2.6016 5.6953-5.0625 5.6953h-6.2227c-.9726 0-1.5351-.6328-1.6875-1.8985v-.1054c.1758-.7969 2.3907-7.0195 6.6446-18.668h-19.1953l-4.8516 13.3945c-2.5313 6.797-3.7969 10.5235-3.7969 11.1797v.5274c0 .6094.1406 1.207.4219 1.793.9375 1.8984 2.0625 2.8476 3.375 2.8476h37.9687zm55.0547 0c1.5 0 2.836-.1758 4.0078-.5273 1.6172-.5157 2.7422-1.3594 3.375-2.5313.9141-2.3906 3.9375-10.7226 9.0704-24.996 1.4062-3.293 2.1093-5.7892 2.1093-7.4884v-.6328c0-.5976-.0703-1.0547-.2109-1.371-.6563-2.7423-3.2227-4.1134-7.6992-4.1134h-33.1172c-2.414 0-4.3828.457-5.9063 1.3711-.9609.4688-2.1914 3.0352-3.6914 7.6993h28.4766c.9023 0 1.4648.5625 1.6875 1.6875v.2109c-.1875.914-1.8398 5.625-4.957 14.1328 0 .1524 1.9687 5.6719 5.9062 16.5586h.9492zm-.8437 7.8047l-10.7578-29.7422h-2.1094l-4.6406 12.8672h-.5274c-.9726 0-1.5351-.6328-1.6875-1.8985v-.1054c.1992-.832 2.414-7.0547 6.6446-18.668H207.748l-4.8515 13.3945c-2.5313 6.797-3.7969 10.5235-3.7969 11.1797v.5274c0 .6094.1406 1.207.4219 1.793.9375 1.8984 2.0625 2.8476 3.375 2.8476h20.9883c0 .1406.914 2.7422 2.7422 7.8047h13.3945zM295.9199 275c3.9024 0 6.3985-1.0898 7.4883-3.2695l13.9219-38.3907h-19.1953c-6.3985 17.7188-9.6328 26.6133-9.7032 26.6836-.9726 3.9375-2.6953 5.9063-5.168 5.9063h-6.2226c-.9726 0-1.5351-.6328-1.6875-1.8985v-.3164l10.9688-30.375H267.127l-8.2266 22.7813c-3.164 8.3437-4.7461 12.914-4.7461 13.711v.5273c0 .6094.1406 1.207.4219 1.793.9375 1.8984 2.0625 2.8476 3.375 2.8476h37.9687zm69.8203-29.6367l4.3243-12.0235h-50.2032l-3.2695 9.0704h36.8086l-1.0547 2.953h13.3945zM354.9824 275l4.8516-13.5v-.1055h-13.3945l-1.582 4.5352h-13.5c1.387-3.7732 2.2854-6.2666 2.6953-7.4803l.0732-.219c.123-.372.1845-.583.1845-.6327h15.9258l2.9532-8.332h-15.7149c.211-.7735.668-2.1095 1.3711-4.0079h-19.1953L308.8926 275h46.0898zm59.168 0l3.164-8.8594h-.5273c-.6797 0-1.1367-.2812-1.371-.8437v-.211c.914-2.4023 1.371-3.8789 1.371-4.4296v-.7383c0-1.172-.8789-2.1211-2.6367-2.8477v-.1055c.5625-.082 1.8633-.9609 3.9023-2.6367 1.711-1.7344 2.9063-4.0195 3.586-6.8554 1.5468-3.586 2.3203-6.2579 2.3203-8.0157v-.6328c0-.5976-.0703-1.0547-.211-1.371-.6562-2.7423-3.2226-4.1134-7.6992-4.1134h-43.4531l-3.2695 9.0704h32.5898c.9024 0 1.4649.5625 1.6875 1.6875 0 .6445-.6328 2.578-1.8984 5.8007-.961 2.1094-2.3672 3.1641-4.2188 3.1641h-5.6953l-2.9531 8.332h6.3281c1.125.1407 1.6875.5977 1.6875 1.3711v.3164c-1.4062 4.0078-2.1094 6.2578-2.1094 6.75v.5274c0 .6094.1407 1.207.422 1.793.9374 1.8984 2.0624 2.8476 3.375 2.8476h15.6093zm-33.3281 0l10.7578-29.7422h-19.1953L361.627 275h19.1953zm70.0312-17.4023l2.9531-8.332h-6.2226c-.9727 0-1.5352-.6329-1.6875-1.8985v-.3164l4.957-13.711h-19.1953l-1.4766 4.1133c-3.4453 9.2578-5.168 14.25-5.168 14.9766v.5273c0 .6094.1407 1.207.422 1.793.9374 1.8984 2.0624 2.8477 3.375 2.8477h22.043zM460.4512 275c3.9023 0 6.3984-1.0898 7.4883-3.2695l13.9218-38.3907H462.666c-6.3984 17.7188-9.6328 26.6133-9.7031 26.6836-.9727 3.9375-2.6953 5.9063-5.168 5.9063h-6.2226c-.9727 0-1.5352-.6328-1.6875-1.8985v-.2109c0-.1992.246-.9726.7382-2.3203v-.1055h-19.1953c-1.828 5.0157-2.7422 7.8282-2.7422 8.4375v.5274c0 .6094.1407 1.207.422 1.793.9374 1.8984 2.0624 2.8476 3.375 2.8476h37.9687z" transform="translate(-38 -233)"/></svg>
